!!!!SEGMENT: pl-sa--1-a-i-1--003_dittersdorf-carl-ditters-von--symphonia-ex-c-menuetto.krn
!!!cenid: 17xx:576
!!!COM: Dittersdorf, Carl Ditters von
!!!COM-rismid: pe14522
!!!CDT: 1739/11/02-1799/10/24
!!!CNT: Austrian
!!!OPR: Symphonia ex C
!!!OTL: Menuetto
!!!OMV: 003
!!!PDT:
!!!AGN: Secular
!!!SMS-siglum: PL-SA
!!!SMS-shelfmark: 1/A I 1
!!!SMS-shelfwork: 001-003 M
!!!SMS-variant:
!!!SMS-altvar:
!!!NIFC-rismid: 1001034975
!!!URL-scan: http://bc.bdsandomierz.pl/dlibra/publication/1268/edition/1236/content
!!!ONB-nifc: UWAGA: części Symphonii: Allegro assai, Andante, Menuetto, Presto
**kern	**dynam	**kern	**kern	**kern	**kern	**kern	**kern	**kern
*part8	*part8	*part7	*part6	*part5	*part4	*part3	*part2	*part1
*staff8	*	*staff7	*staff6	*staff5	*staff4	*staff3	*staff2	*staff1
*Ibass	*	*Iviola	*Ivioln	*Ivioln	*Iempty	*Iempty	*Ioboe	*Ioboe
*I"Basso [bc]	*	*I"Alto Viola	*I"Violino 2do	*I"Violino 1mo	*I"Cornu 2do	*I"Cornu 1mo	*I"Oboe 2do	*I"Oboe 1mo
*I'Bc	*	*I'Vla	*I'Vl 2	*I'Vl 1	*I'Cor 2	*I'Cor 1	*I'Ob 2	*I'Ob 1
*clefF4	*	*clefC3	*clefG2	*clefG2	*clefG2	*clefG2	*clefG2	*clefG2
*k[]	*	*k[]	*k[]	*k[]	*k[]	*k[]	*k[]	*k[]
*F:	*	*F:	*F:	*F:	*F:	*F:	*F:	*F:
*M3/4	*	*M3/4	*M3/4	*M3/4	*M3/4	*M3/4	*M3/4	*M3/4
*>[A,A,B]	*	*>[A,A,B]	*>[A,A,B]	*>[A,A,B]	*>[A,A,B]	*>[A,A,B]	*>[A,A,B]	*>[A,A,B]
*>A	*	*>A	*>A	*>A	*>A	*>A	*>A	*>A
!LO:TX:a:i:t=Menuetto	!	!LO:TX:a:i:t=Menuetto	!LO:TX:a:i:t=Menuetto	!LO:TX:a:i:t=Menuetto	!LO:TX:a:i:t=Menuetto	!LO:TX:a:i:t=Menuetto	!LO:TX:a:i:t=Menuetto	!LO:TX:a:i:t=Menuetto Tacet
4r	.	4r	4cc\	4cc\	4r	4r	4r	4ryy
=1	=1	=1	=1	=1	=1	=1	=1	=1
!	!	!	!	!	!	!LO:TX:a:i:t=3	!	!
!	!	!	!	!	!LO:N:vis=0	!LO:N:vis=0	!LO:N:vis=0	!
4C\	.	4c\	4cc\	4cc\	1.r	1.r	1.r	2.ryy
4D\	.	4d\	4b\	4b\	.	.	.	.
4E\	.	4e\	4cc\	4cc\	.	.	.	.
=2	=2	=2	=2	=2	=2	=2	=2	=2
4F\	.	4f\	4a/	4a\	.	.	.	2.ryy
4D\	.	4d\	4b/	4b\	.	.	.	.
4E\	.	4e\	4cc/	4cc\	.	.	.	.
=3	=3	=3	=3	=3	=3	=3	=3	=3
*2\right	*	*2\right	*	*	*	*	*	*
2F\	.	2f\	4cc#X\	4cc#X\	2.r	2.r	2.r	2.ryy
.	.	.	4dd\	4dd\	.	.	.	.
4F#X\	.	4f#X\	4ccn\	4ccn\	.	.	.	.
=4	=4	=4	=4	=4	=4	=4	=4	=4
4G\	.	4g\	4b\	4b\	4r	4r	4r	2.ryy
4GG/	.	4G/	4g/	4g\	4r	4r	4r	.
4c\	.	4cc\	8ee\L	8ee\L	4cc\	4cc\	4g/	.
.	.	.	8ff#X\J	8ff#X\J	.	.	.	.
!LO:LB:g=original	!	!	!	!	!	!	!	!
=5	=5	=5	=5	=5	=5	=5	=5	=5
*	*	*	*	*	*	*2\right	*	*
4B\	.	4b\	8gg\L	8gg\L	4g/	2dd\	2.g/	2.ryy
.	.	.	8dd\J	8dd\J	.	.	.	.
4G\	.	4g\	4dd\	4dd\	4g/	.	.	.
!	!	!LO:LB:g=original	!	!	!	!	!	!
4c\	.	4cc\	8ee\L	8ee\L	4cc\	4ee\	.	.
.	.	.	8ff#X\J	8ff#X\J	.	.	.	.
!	!	!	!LO:LB:g=original	!	!	!	!	!
=6	=6	=6	=6	=6	=6	=6	=6	=6
4B\	.	4b\	8gg\L	8gg\L	2g/	2dd\	2.g/	2.ryy
.	.	.	8dd\J	8dd\J	.	.	.	.
4G\	.	4g\	4dd\	4dd\	.	.	.	.
!	!	!	!	!LO:LB:g=original	!	!	!	!
4c\	.	4cc\	4g/	8b\L	4r	4r	.	.
.	.	.	.	8dd\J	.	.	.	.
=7	=7	=7	=7	=7	=7	=7	=7	=7
.	.	.	.	.	.	.	8qqb/	.
4A\	.	4a\	4a/	8ee\L	4r	4r	4a/	2.ryy
.	.	.	.	8cc\J	.	.	.	.
4d\	.	4dd\	4g/	4b/	4dd\	4r	4g/	.
4D/	.	4d\	4f#X/	4a/	4dd\	4dd\	4f#X/	.
=8	=8	=8	=8	=8	=8	=8	=8	=8
.	.	.	.	8qqa/	.	.	.	.
!	!	!	!	!	!	!LO:N:vis=1	!	!
2G\	.	2g\	2g/	2g/	2g/	2dd\	2g/	2.ryy
4ryy	.	4ryy	4ryy	4r	4r	4ryy	4ryy	.
*>B	*	*>B	*>B	*>B	*>B	*>B	*>B	*>B
=9:|!|:	=9:|!|:	=9:|!|:	=9:|!|:	=9:|!|:	=9:|!|:	=9:|!|:	=9:|!|:	=9:|!|:
!LO:SIC:o=:v:brak przedtaktu	!	!	!	!	!	!	!	!
4ryy	.	4r	4r	4g/	4r	4r	4r	4ryy
=10	=10	=10	=10	=10	=10	=10	=10	=10
!	!	!LO:TX:a:i:t=8	!	!	!	!	!	!
!	!LO:DY:t=pia	!LO:N:vis=00	!	!	!LO:N:vis=00	!LO:N:vis=00	!LO:N:vis=00	!
4GG/	p	0.r	2.r	4g/	0.r	0.r	0.r	2.ryy
4AA/	.	.	.	4e/	.	.	.	.
4BB/	.	.	.	4g#X/	.	.	.	.
=11	=11	=11	=11	=11	=11	=11	=11	=11
4C/	.	.	4c/	4a/	.	.	.	2.ryy
4D/	.	.	4B/	4r	.	.	.	.
!LO:LB:g=original	!	!	!	!	!	!	!	!
4E/	.	.	4B-X/	4r	.	.	.	.
=12	=12	=12	=12	=12	=12	=12	=12	=12
4F\	.	.	4A/	4a/	.	.	.	2.ryy
4E\	.	.	4Bn/	4f#X/	.	.	.	.
4A\	.	.	4c#X/	4a#X/	.	.	.	.
=13	=13	=13	=13	=13	=13	=13	=13	=13
4D\	.	.	4d/	4b\	.	.	.	2.ryy
4E\	.	.	4c#X/	4r	.	.	.	.
4F#X\	.	.	4cn/	4r	.	.	.	.
!	!	!	!LO:LB:g=original	!LO:LB:g=original	!	!	!	!
=14	=14	=14	=14	=14	=14	=14	=14	=14
!	!	!LO:N:vis=00	!	!	!LO:N:vis=0	!LO:N:vis=0	!LO:N:vis=0	!
4G\	.	0.r	4B/	4b\	1.r	1.r	1.r	2.ryy
4F#X\	.	.	4c#X/	4g\	.	.	.	.
4B\	.	.	4d#X/	4b\	.	.	.	.
=15	=15	=15	=15	=15	=15	=15	=15	=15
4E\	.	.	4e/	4cc\	.	.	.	2.ryy
4G#X\	.	.	4b/	4r	.	.	.	.
4E\	.	.	4g#X/	4r	.	.	.	.
=16	=16	=16	=16	=16	=16	=16	=16	=16
4A\	.	.	4e/	8g\L	2.r	2.r	2.r	2.ryy
.	.	.	.	8ee\	.	.	.	.
4B\	.	.	4d/	8f\	.	.	.	.
.	.	.	.	8dd\	.	.	.	.
4c\	.	.	4c/	8e\	.	.	.	.
.	.	.	.	8cc\J	.	.	.	.
!LO:LB:g=original	!	!	!	!	!LO:LB:g=original	!	!	!
=17	=17	=17	=17	=17	=17	=17	=17	=17
.	.	.	8qqc/	.	.	.	.	.
4Gn\	.	.	2B/	4e/	4r	4r	4r	2.ryy
4GG/	.	.	.	4d/	4r	4r	4r	.
4F\	.	.	8aa\L	8aa\L	4c/	4cc\	4cc\	.
.	.	.	8bb\J	8bb\J	.	.	.	.
=18	=18	=18	=18	=18	=18	=18	=18	=18
*	*	*	*	*	*	*	*2\right	*
4E\	.	4e\	8ccc\L	8ccc\L	4c/	4cc\	2.cc\	2.ryy
.	.	.	8gg\J	8gg\J	.	.	.	.
4C/	.	4c\	4gg\	4gg\	4r	4r	.	.
4r	.	4f\	8aa\L	8aa\L	4c/	4cc\	.	.
.	.	.	8bb\J	8bb\J	.	.	.	.
!	!	!LO:LB:g=original	!	!	!	!	!	!
=19	=19	=19	=19	=19	=19	=19	=19	=19
4E\	.	4e\	8ccc\L	8ccc\L	4c/	4cc\	2.cc\	2.ryy
.	.	.	8gg\J	8gg\J	.	.	.	.
4C/	.	4c\	4gg\	4gg\	4r	4r	.	.
4F\	.	4f\	4cc\	8ee\L	4r	4r	.	.
.	.	.	.	8gg\J	.	.	.	.
!	!	!	!	!	!	!LO:LB:g=original	!LO:LB:g=original	!
=20	=20	=20	=20	=20	=20	=20	=20	=20
4D\	.	4d\	4dd\	8gg\L	4r	4r	4dd\	2.ryy
.	.	.	.	8ff\J	.	.	.	.
4G\	.	4g\	4cc\	4ee\	4r	4r	4cc\	.
4GG/	.	4G/	4b\	4dd\	4G/	4dd\	4b\	.
!	!	!	!LO:LB:g=original	!LO:LB:g=original	!	!	!	!
=21	=21	=21	=21	=21	=21	=21	=21	=21
.	.	.	8qqb/	8qqdd/	.	.	.	.
*	*	*	*2\right	*2\right	*	*	*	*
4C/	.	4c/	2cc\	2ee\	4c/	4cc\	2cc\	2.ryy
4c\	.	4cc\	.	.	4r	4r	.	.
4A\	.	4f\	8a/L	8a/L	8c/L	8cc\L	4a/	.
.	.	.	8b/J	8b/J	8c/J	8cc\J	.	.
=22	=22	=22	=22	=22	=22	=22	=22	=22
4E\	.	4e\	8cc\L	8cc/L	4c/	4cc\	2g/	2.ryy
.	.	.	8g\J	8g/J	.	.	.	.
4C/	.	4c\	4g/	4g/	8c/L	8cc\L	.	.
.	.	.	.	.	8c/	8cc\	.	.
!LO:LB:g=original	!	!	!	!	!	!	!	!
4F\	.	4f\	8a/L	8a/L	8c/	8cc\	4a/	.
.	.	.	8b/J	8b/J	8c/J	8cc\J	.	.
=23	=23	=23	=23	=23	=23	=23	=23	=23
4E\	.	4e\	8cc\L	8cc/L	4c/	2cc\	2g/	2.ryy
.	.	.	8g\J	8g/J	.	.	.	.
4C/	.	4c\	4g/	4g/	8e/L	.	.	.
.	.	.	.	.	8g/J	.	.	.
4r	.	4r	8cc\L	8ee\L	8cc\L	8ee\L	8cc\L	.
.	.	.	8ee\J	8gg\J	8ee\J	8gg\J	8ee\J	.
!	!	!LO:LB:g=original	!	!	!	!	!	!
=24	=24	=24	=24	=24	=24	=24	=24	=24
.	.	.	8qqee/	.	.	.	.	.
4F\	.	4f\	4dd\	8gg\L	4dd\	4ff\	4dd\	2.ryy
.	.	.	.	8ff\J	.	.	.	.
4G\	.	4g\	4cc\	4ee\	4cc\	4ee\	4cc\	.
4GG/	.	4G/	4b\	4dd\	4g/	4dd\	4b\	.
=25	=25	=25	=25	=25	=25	=25	=25	=25
.	.	.	.	8qqdd/	.	.	.	.
4C/	.	4c\	2cc\	2cc\	2e/	2cc\	2cc\	2.ryy
4c\	.	4cc\	.	.	.	.	.	.
4r	.	4ryy	4ryy	4ryy	4ryy	4ryy	4ryy	.
!LO:LB:g=original	!	!	!LO:LB:g=original	!LO:LB:g=original	!	!	!	!
=26:|!	=26:|!	=26:|!	=26:|!	=26:|!	=26:|!	=26:|!	=26:|!	=26:|!
*k[b-]	*	*k[b-]	*k[b-]	*k[b-]	*k[b-]	*k[b-]	*k[b-]	*k[b-]
*F:	*	*F:	*F:	*F:	*F:	*F:	*F:	*F:
*M3/4	*	*M3/4	*M3/4	*M3/4	*M3/4	*M3/4	*M3/4	*M3/4
!	!	!LO:TX:b:i:t=Seg(ue) Presto	!	!	!	!	!	!
!	!	!LO:TX:a:i:t=Menuetto Da Capo	!	!	!LO:TX:a:i:t=Men(uetto) Da Capo	!LO:TX:a:i:t=Trio Tacet	!LO:TX:a:i:t=Trio Tacet	!
!LO:TX:a:i:t=Trio	!	!LO:TX:a:i:t=Trio Tacet	!LO:TX:a:i:t=Trio	!LO:TX:a:i:t=Trio	!LO:TX:a:i:t=Trio Tacet	!LO:TX:a:i:t=Menuetto Da Capo	!LO:TX:a:i:t=Men(uetto) Da (Ca)po	!
4r	.	4ryy	4c/	4c/	4ryy	4ryy	4ryy	4ryy
=27	=27	=27	=27	=27	=27	=27	=27	=27
*	*	*	*	*Xtuplet	*	*	*	*
4r	.	2.ryy	8f/L	12f/L	2.ryy	2.ryy	2.ryy	2.ryy
.	.	.	.	12a/	.	.	.	.
.	.	.	8f/	.	.	.	.	.
.	.	.	.	12b-/J	.	.	.	.
4r	.	.	8f/	12cc\L	.	.	.	.
.	.	.	.	12dd\	.	.	.	.
.	.	.	8f/	.	.	.	.	.
.	.	.	.	12ee\J	.	.	.	.
(4d\	.	.	8f/	12ff\L	.	.	.	.
.	.	.	.	12ee\	.	.	.	.
.	.	.	8f/J	.	.	.	.	.
.	.	.	.	12dd\J	.	.	.	.
=28	=28	=28	=28	=28	=28	=28	=28	=28
*	*	*	*tremolo	*	*	*	*	*
4c\)	.	2.ryy	12f/L	4cc\	2.ryy	2.ryy	2.ryy	2.ryy
.	.	.	12f/	.	.	.	.	.
.	.	.	12f/	.	.	.	.	.
4r	.	.	12f/	12a\L	.	.	.	.
.	.	.	12f/	12b-\	.	.	.	.
.	.	.	12f/	12cc\J	.	.	.	.
(4B-\	.	.	12f/	12dd\L	.	.	.	.
.	.	.	12f/	12cc\	.	.	.	.
.	.	.	12f/J	12b-\J	.	.	.	.
=29	=29	=29	=29	=29	=29	=29	=29	=29
4A\)	.	2.ryy	12f/L	4a/	2.ryy	2.ryy	2.ryy	2.ryy
.	.	.	12f/	.	.	.	.	.
.	.	.	12f/	.	.	.	.	.
4r	.	.	12f/	12c/L	.	.	.	.
.	.	.	12f/	12d/	.	.	.	.
.	.	.	12f/	12e/J	.	.	.	.
(4d\	.	.	12f/	12f/L	.	.	.	.
.	.	.	12f/	12e/	.	.	.	.
.	.	.	12f/J	12d/J	.	.	.	.
!	!	!	!	!LO:LB:g=original	!	!	!	!
=30	=30	=30	=30	=30	=30	=30	=30	=30
!!pagebreak:original
4c\)	.	2.ryy	12f/L	4c/	2.ryy	2.ryy	2.ryy	2.ryy
.	.	.	12f/	.	.	.	.	.
.	.	.	12f/	.	.	.	.	.
4r	.	.	12f/	12A/L	.	.	.	.
.	.	.	12f/	12B-/	.	.	.	.
.	.	.	12f/	12c/J	.	.	.	.
(4B-\	.	.	12f/	12d/L	.	.	.	.
.	.	.	12f/	12c/	.	.	.	.
.	.	.	12f/J	12B-/J	.	.	.	.
=31	=31	=31	=31	=31	=31	=31	=31	=31
4A\)	.	2.ryy	12f/L	12A/L	2.ryy	2.ryy	2.ryy	2.ryy
.	.	.	12f/	12c/	.	.	.	.
.	.	.	12f/	12f/J	.	.	.	.
4r	.	.	12f/	12a\L	.	.	.	.
.	.	.	12f/	12cc\	.	.	.	.
.	.	.	12f/	12ff\J	.	.	.	.
4A-X\	.	.	12f/	12aa\L	.	.	.	.
.	.	.	12f/	12gg\	.	.	.	.
.	.	.	12f/J	12ff\J	.	.	.	.
*	*	*	*Xtremolo	*	*	*	*	*
!LO:LB:g=original	!	!	!	!	!	!	!	!
=32	=32	=32	=32	=32	=32	=32	=32	=32
8G\L	.	2.ryy	4f/	8bn\L	2.ryy	2.ryy	2.ryy	2.ryy
8G\	.	.	.	8dd\	.	.	.	.
!	!	!	!LO:LB:g=original	!	!	!	!	!
8G\	.	.	8dd\L	8ff\	.	.	.	.
8G\	.	.	8bn\	8dd\	.	.	.	.
8G\	.	.	8ff\	8aa\	.	.	.	.
8G\J	.	.	8dd\J	8ff\J	.	.	.	.
=33	=33	=33	=33	=33	=33	=33	=33	=33
!LO:TX:t=P:problem:mixed beam	!	!	!	!	!	!	!	!
8C/L	.	2.ryy	4cc\	8ee\L	2.ryy	2.ryy	2.ryy	2.ryy
8C/	.	.	.	8dd\J	.	.	.	.
8G\	.	.	4e/	4cc\	.	.	.	.
8G\	.	.	.	.	.	.	.	.
8GG/	.	.	4d/	4b-\	.	.	.	.
8GG/J	.	.	.	.	.	.	.	.
=	=	=	=	=	=	=	=	=
.	.	.	.	8qqb-/	.	.	.	.
4C/	.	2ryy	2c/	2cc\	2ryy	2ryy	2ryy	2ryy
4c\	.	.	.	.	.	.	.	.
!	!	!	!	!LO:LB:g=original	!	!	!	!
=34:|!|:	=34:|!|:	=34:|!|:	=34:|!|:	=34:|!|:	=34:|!|:	=34:|!|:	=34:|!|:	=34:|!|:
4C/	.	4ryy	4r	4c/	4ryy	4ryy	4ryy	4ryy
=35	=35	=35	=35	=35	=35	=35	=35	=35
*tremolo	*	*	*	*	*	*	*	*
12c\L	.	2.ryy	4r	12e/L	2.ryy	2.ryy	2.ryy	2.ryy
12c\	.	.	.	12g/	.	.	.	.
12c\	.	.	.	12b-/J	.	.	.	.
12c\	.	.	4r	12cc\L	.	.	.	.
12c\	.	.	.	12ee\	.	.	.	.
12c\	.	.	.	12gg\J	.	.	.	.
12c\	.	.	4b-\	12bb-\L	.	.	.	.
12c\	.	.	.	12gg\	.	.	.	.
12c\J	.	.	.	12ee\J	.	.	.	.
=36	=36	=36	=36	=36	=36	=36	=36	=36
12c\L	.	2.ryy	4a/	4cc\	2.ryy	2.ryy	2.ryy	2.ryy
12c\	.	.	.	.	.	.	.	.
12c\	.	.	.	.	.	.	.	.
12c\	.	.	4g/	4b-\	.	.	.	.
12c\	.	.	.	.	.	.	.	.
12c\J	.	.	.	.	.	.	.	.
4C/	.	.	4f/	4a\	.	.	.	.
!LO:LB:g=original	!	!	!	!	!	!	!	!
=37	=37	=37	=37	=37	=37	=37	=37	=37
.	.	.	.	8qqa/	.	.	.	.
12c\L	.	2.ryy	4e/	4g/	2.ryy	2.ryy	2.ryy	2.ryy
12c\	.	.	.	.	.	.	.	.
12c\	.	.	.	.	.	.	.	.
12c\	.	.	4r	4r	.	.	.	.
12c\	.	.	.	.	.	.	.	.
12c\	.	.	.	.	.	.	.	.
12c\	.	.	4c/	8f/L	.	.	.	.
12c\	.	.	.	.	.	.	.	.
.	.	.	.	8g/J	.	.	.	.
12c\J	.	.	.	.	.	.	.	.
!	!	!	!LO:LB:g=original	!	!	!	!	!
=38	=38	=38	=38	=38	=38	=38	=38	=38
12c\L	.	2.ryy	4f/	8a/L	2.ryy	2.ryy	2.ryy	2.ryy
12c\	.	.	.	.	.	.	.	.
!	!	!	!	!LO:N:vis=32	!	!	!	!
.	.	.	.	16g/L	.	.	.	.
12c\	.	.	.	.	.	.	.	.
!	!	!	!	!LO:N:vis=32	!	!	!	!
.	.	.	.	16a/JJ	.	.	.	.
12c\	.	.	4g/	8b-\L	.	.	.	.
12c\	.	.	.	.	.	.	.	.
!	!	!	!	!LO:N:vis=32	!	!	!	!
.	.	.	.	16a\L	.	.	.	.
12c\J	.	.	.	.	.	.	.	.
!	!	!	!	!LO:N:vis=32	!	!	!	!
.	.	.	.	16b-\JJ	.	.	.	.
4C/	.	.	4a/	8cc\L	.	.	.	.
!	!	!	!	!LO:N:vis=32	!	!	!	!
.	.	.	.	16b-\L	.	.	.	.
!	!	!	!	!LO:N:vis=32	!	!	!	!
.	.	.	.	16cc\JJ	.	.	.	.
!	!	!	!	!LO:LB:g=original	!	!	!	!
=39	=39	=39	=39	=39	=39	=39	=39	=39
12c\L	.	2.ryy	4b-\	4.dd\	2.ryy	2.ryy	2.ryy	2.ryy
12c\	.	.	.	.	.	.	.	.
12c\	.	.	.	.	.	.	.	.
12c\	.	.	4r	.	.	.	.	.
12c\	.	.	.	.	.	.	.	.
.	.	.	.	16ff\LL	.	.	.	.
12c\	.	.	.	.	.	.	.	.
.	.	.	.	16ee\JJ	.	.	.	.
.	.	.	.	16qqgg/	.	.	.	.
12c\	.	.	4b-\	8ff\L	.	.	.	.
12c\	.	.	.	.	.	.	.	.
.	.	.	.	16ee\L	.	.	.	.
12c\J	.	.	.	.	.	.	.	.
.	.	.	.	16dd\JJ	.	.	.	.
=40	=40	=40	=40	=40	=40	=40	=40	=40
12c\L	.	2.ryy	4a/	4cc\	2.ryy	2.ryy	2.ryy	2.ryy
12c\	.	.	.	.	.	.	.	.
12c\	.	.	.	.	.	.	.	.
12c\	.	.	4g/	8b-\L	.	.	.	.
12c\	.	.	.	.	.	.	.	.
.	.	.	.	8gg\	.	.	.	.
12c\J	.	.	.	.	.	.	.	.
4C/	.	.	4f/	8a\	.	.	.	.
.	.	.	.	8ff\J	.	.	.	.
=41	=41	=41	=41	=41	=41	=41	=41	=41
.	.	.	.	8qqa/	.	.	.	.
12c\L	.	2.ryy	4e/	4g/	2.ryy	2.ryy	2.ryy	2.ryy
12c\	.	.	.	.	.	.	.	.
12c\	.	.	.	.	.	.	.	.
12c\	.	.	4r	4r	.	.	.	.
12c\	.	.	.	.	.	.	.	.
12c\	.	.	.	.	.	.	.	.
12c\	.	.	4c/	4c/	.	.	.	.
12c\	.	.	.	.	.	.	.	.
12c\J	.	.	.	.	.	.	.	.
=42	=42	=42	=42	=42	=42	=42	=42	=42
4F\	.	2.ryy	8f/L	12c/L	2.ryy	2.ryy	2.ryy	2.ryy
.	.	.	.	12A/	.	.	.	.
.	.	.	8f/	.	.	.	.	.
.	.	.	.	12B-/J	.	.	.	.
4r	.	.	8f/	12c/L	.	.	.	.
.	.	.	.	12d/	.	.	.	.
.	.	.	8f/	.	.	.	.	.
.	.	.	.	12e/J	.	.	.	.
(4d\	.	.	8f/	12f/L	.	.	.	.
.	.	.	.	12e/	.	.	.	.
.	.	.	8f/J	.	.	.	.	.
.	.	.	.	12d/J	.	.	.	.
=43	=43	=43	=43	=43	=43	=43	=43	=43
*	*	*	*tremolo	*	*	*	*	*
!	!	!	!LO:N:vis=2	!	!	!	!	!
4c\)	.	2.ryy	12f/L	4c/	2.ryy	2.ryy	2.ryy	2.ryy
.	.	.	12f/	.	.	.	.	.
.	.	.	12f/	.	.	.	.	.
4r	.	.	12f/	12a\L	.	.	.	.
.	.	.	12f/	12b-\	.	.	.	.
.	.	.	12f/	12cc\J	.	.	.	.
4B-\	.	.	12f/	12dd\L	.	.	.	.
.	.	.	12f/	12cc\	.	.	.	.
.	.	.	12f/J	12b-\J	.	.	.	.
!	!	!	!	!LO:LB:g=original	!	!	!	!
=44	=44	=44	=44	=44	=44	=44	=44	=44
!	!	!	!LO:N:vis=2	!	!	!	!	!
4A\	.	2.ryy	12f/L	4a\	2.ryy	2.ryy	2.ryy	2.ryy
.	.	.	12f/	.	.	.	.	.
.	.	.	12f/	.	.	.	.	.
4r	.	.	12f/	12cc\L	.	.	.	.
.	.	.	12f/	12dd\	.	.	.	.
.	.	.	12f/	12ee\J	.	.	.	.
!LO:LB:g=original	!	!	!	!	!	!	!	!
8d\L	.	.	12f/	12ff\L	.	.	.	.
.	.	.	12f/	12ee\	.	.	.	.
8B-\J	.	.	.	.	.	.	.	.
.	.	.	12f/J	12dd\J	.	.	.	.
*	*	*	*Xtremolo	*	*	*	*	*
!	!	!	!LO:LB:g=original	!	!	!	!	!
=45	=45	=45	=45	=45	=45	=45	=45	=45
!LO:TX:t=P:problem:mixed beam	!	!	!	!	!	!	!	!
8A\L	.	2.ryy	4f/	8cc\L	2.ryy	2.ryy	2.ryy	2.ryy
8B-\	.	.	.	8b-\J	.	.	.	.
8c\	.	.	4f/	4a\	.	.	.	.
8c\	.	.	.	.	.	.	.	.
8C/	.	.	4e/	4g\	.	.	.	.
8C/J	.	.	.	.	.	.	.	.
=46	=46	=46	=46	=46	=46	=46	=46	=46
!	!	!	!LO:TX:a:i:t=Menuetto Da Capo	!	!	!	!	!
.	.	.	.	8qqg/	.	.	.	.
4F\	.	2.ryy	2f/	2f/	2.ryy	2.ryy	2.ryy	2.ryy
4FF/	.	.	.	.	.	.	.	.
4ryy	.	.	4ryy	4r	.	.	.	.
=:|!	=:|!	=:|!	=:|!	=:|!	=:|!	=:|!	=:|!	=:|!
*-	*-	*-	*-	*-	*-	*-	*-	*-
!!!system-decoration: [(s1,s2)][(s3,s4)][(s5,s6,s7)][(s8)]
!!!EED: Leszek Kubiak
!!!EST: 2020-07-22
!!!ENC: Marta Chmielewska
!!!END: 2020-05-12
